icon-svg/lg-cooker.svg

<svg xmlns="http://www.w3.org/2000/svg" viewBox="0 0 24 24"><path fill="#44739e" d="M11.275 6.619a.385.385 0 0 0 .386-.384v-.023h-.281v.044h.235a.34.34 0 1 1-.333-.362h.019v-.046h-.02a.386.386 0 0 0 0 .771Zm-.144-.472a.059.059 0 1 0-.059-.059.06.06 0 0 0 .058.058m.171-.116h-.046v.406h.136v-.042h-.09Zm-1.54.816c.105.024 1.189.034 2.419.022l2.237-.023.023-.712.023-.716h-2.39c-1.314 0-2.413.024-2.443.054a2.6 2.6 0 0 0-.054.688c0 .594.012.64.183.682Zm4.147-1.172c.13 0 .223.034.223.093 0 .208-.1.468-.177.468-.042 0-.052-.078-.021-.173q.053-.173-.037-.117c-.061.037-.089.017-.089-.031s.063-.09.141-.094c.094 0 .076-.031-.06-.073l-.209-.066Zm-.223.886a.44.44 0 0 1 .312-.073c.249.008.251.011.057.073-.295.088-.428.088-.372 0Zm-1.017-.611a.3.3 0 0 1 .169.051.18.18 0 0 1 .07.144h-.167a.073.073 0 0 0-.076-.067c-.065 0-.1.06-.1.159s.039.162.1.162.082-.03.094-.094h-.1v-.118h.25V6.5h-.136v-.048a.17.17 0 0 1-.146.068c-.14 0-.232-.113-.232-.286a.26.26 0 0 1 .23-.284.2.2 0 0 1 .046 0m-.709.014h.159v.406h.237v.136h-.4Zm-.675-.184a.455.455 0 1 1-.455.455.455.455 0 0 1 .455-.455m3.555.949a1.06 1.06 0 0 0 .879.073.81.81 0 0 0 .081-1.145 1 1 0 0 0-.122-.114.57.57 0 0 0-.786.087c-.184.183-.209.26-.171.614a1.2 1.2 0 0 0 .119.485m.57-.955c.057 0 .1.081.1.18a.26.26 0 0 0 .125.23c.105.038.105.082.036.217s-.154.162-.349.144c-.214-.021-.261-.061-.264-.23 0-.233.194-.542.348-.542ZM8.362 6.8c.355.147.8.042.9-.214a1.1 1.1 0 0 0-.048-.907.75.75 0 0 0-.953-.038c-.332.377-.278 1 .1 1.159m.032-.618a.27.27 0 0 0 .125-.243c0-.233.109-.248.313-.042.129.13.155.285.1.6 0 .033-.119.061-.25.061-.285 0-.511-.294-.292-.375Zm10.9 7.164V4.727l-.433-1.1a13 13 0 0 0-.521-1.2 8.5 8.5 0 0 0-2.27-.1c-2.071 0-2.185-.008-2.343-.162S13.455 2 12.029 2c-1.41 0-1.55.014-1.74.163s-.33.162-2.4.162a7.9 7.9 0 0 0-2.281.1 12 12 0 0 0-.5 1.291l-.407 1.2v17.013l.183.044c.105.024 3.385.034 7.3.022l7.115-.022Zm-1.992-9.128a4.7 4.7 0 0 1-1.137-.1c0-.039.083-.087.182-.1a8 8 0 0 1 1.885.022c.42.158.186.2-.927.179Zm.939.312c.034.052-.246.078-.786.071-.586-.008-.753-.029-.553-.071a3.2 3.2 0 0 1 1.335 0Zm-3.739-1.553a11 11 0 0 1 2.556 0c.077.049.139.045.174-.012s.167-.066.368-.027c.57.1.066.175-1.5.195-1.453.021-1.692 0-1.6-.156m-.4.222c.082-.083.124-.065.067.028-.105.163.2.344.471.289a8.3 8.3 0 0 1 2.132-.076l.893.065-.561.135a2.15 2.15 0 0 1-1.179.024c-.8-.146-.923-.146-.867 0 .035.092-.019.1-.256.075-.465-.065-.747-.2-.747-.35a.3.3 0 0 1 .054-.195Zm.313 1c-.147 0-.286.046-.313.1s-.042.06-.047-.024a.34.34 0 0 1 .091-.223 1.42 1.42 0 0 1 .946-.027c.123.076-.246.173-.684.173Zm-.682.128c.084.1-.118.117-1.505.112-1.556 0-2.031-.047-1.729-.152.073-.027.809-.054 1.634-.063 1.217-.012 1.515.008 1.6.1Zm-.819-1.736c.157 0 .22.017.142.038a.7.7 0 0 1-.284 0c-.084-.021-.019-.038.137-.038Zm-1.138 0c.246 0 .346.016.223.035a2 2 0 0 1-.447 0c-.129-.014-.027-.03.219-.03Zm-1.585.923c.038-.29.121-.387.121-.141 0 .32.2.136.263-.243.072-.425.119-.563.193-.563.029 0 .034.143.011.313a.63.63 0 0 0 .05.417q.106.112-.009.044c-.055-.031-.1-.019-.1.028a3.6 3.6 0 0 0 1.26.087 3.6 3.6 0 0 0 1.261-.087c0-.047-.046-.059-.105-.028-.081.046-.081.035 0-.052a.8.8 0 0 0 .105-.424c0-.188.031-.294.081-.263a.6.6 0 0 1 .081.364c0 .393.066.571.209.571.062 0 .113.035.113.078a9 9 0 0 1-1.783.1l-1.782.023Zm-.123.07c0 .1-.123.121-.625.119-.588 0-.618-.011-.428-.119.275-.157 1.048-.157 1.048 0Zm-.164.716a1.24 1.24 0 0 0-.6-.093c-.347 0-.457-.025-.37-.08a1.3 1.3 0 0 1 .505-.08c.313 0 .4.031.478.181s.07.162-.019.077Zm-.048-1.328c.024.039-.25.1-.6.127a13.7 13.7 0 0 1-2.927-.128 22.6 22.6 0 0 1 3.531 0Zm-1.376.938a.69.69 0 0 1-.646-.073c-.146-.11-.13-.119.21-.118a1.3 1.3 0 0 1 .464.069c.087.052.082.076-.027.118Zm-2.4-.248a2 2 0 0 0 .529-.1 5 5 0 0 1 1.337-.147c.141-.007.1.02-.1.085-.172.052-.285.123-.25.156a3 3 0 0 1-.907.047c-.534-.007-.806-.027-.6-.041Zm-.363.438c.133-.1.376-.146.939-.165.417-.015.854-.031.967-.04.181-.012.172 0-.083.138a2.7 2.7 0 0 1-1.147.179c-.818.03-.845.024-.678-.111Zm-.7 1.564c.053 0 .092-.069.092-.154a.23.23 0 0 1 .132-.2c.07-.027 1.032-.052 2.134-.056s2.189-.034 2.412-.066l.407-.059-.551-.066c-.3-.035-1.451-.052-2.553-.035-1.552.023-2.012.007-2.038-.073s.267-.105 1.293-.105c.888 0 1.287-.027 1.206-.079a2.6 2.6 0 0 0-.772-.081c-.823 0-1.313-.077-1.165-.179a4 4 0 0 1 1-.045 2.5 2.5 0 0 1 1.18.187c.271.151.48.159 4.431.172 7.47.025 6.79.009 6.791.169 0 .133-.12.14-1.688.1q-1.269-.033-2.54 0l-.854.042.61.059c.334.031 1.378.079 2.317.1a6.4 6.4 0 0 1 1.89.167c.3.193.209.284-.1.1a.693.693 0 0 0-.945.115 1.09 1.09 0 0 0 .1 1.06.88.88 0 0 0 .911.021c.219-.115.228-.111.209.062s-.035.182-2.263.245c-2.283.067-11.533.018-11.611-.062a3.3 3.3 0 0 1-.036-1.345Zm13.938 1.865a.31.31 0 0 1-.216.2c-.375.09-7.17.153-10.24.095-2.739-.054-3.255-.082-3.365-.188s-.1-.135-.016-.192c.059-.037 3.206-.068 6.991-.069 6.746 0 6.892 0 6.848.154Zm-.521-1.619c.047 0 .06.061.031.135-.04.1-.019.124.084.084s.136-.009.136.092a.379.379 0 0 1-.634.241.57.57 0 0 1-.018-.6c.105-.11.427-.135.365-.032-.025.042-.01.074.036.074Zm-13.4 2.5c.069.07.362.1.918.092l.818-.011-.566-.091a3.4 3.4 0 0 1-.73-.187 47 47 0 0 1 5.6-.092c3.168 0 5.782-.021 5.807-.046a7 7 0 0 1 1.07-.043c.992 0 1.015.008.779.136a4 4 0 0 1-.57.24c-.323.1-.322.1.265.087l.59-.019v2.558c0 2.045-.021 2.536-.1 2.455a9.7 9.7 0 0 1-.125-2.352 21 21 0 0 0-.091-2.321c-.088-.087-13.262-.088-13.345 0a22 22 0 0 0-.094 2.273 23 23 0 0 1-.086 2.27.09.09 0 0 1-.122 0c-.034-.034-.073-1.184-.086-2.555-.021-2-.005-2.473.077-2.391Zm14.023 12.065c-.053.56-.074.618-.215.581-.086-.023-.157-.073-.157-.112 0-.115-13.394-.094-13.465.022-.04.064-.092.047-.167-.057a14.7 14.7 0 0 1-.11-3.2c0-2.907.007-3.045.142-2.909s.146.417.183 2.919l.042 2.781.208.057c.276.077 13.032.085 13.147.01a15 15 0 0 0 .121-2.888c.023-2.486.011-2.815-.1-2.773a93 93 0 0 1-13.152.027c-.254-.09-.332-.188-.2-.261.033-.017.017-.024-.035-.01-.119.027-.19-.152-.187-.484v-.257l.181.224.182.223 1.992.092c1.949.089 9.443.045 10.682-.063.539-.047.561-.058.671-.323a.9.9 0 0 1 .151-.275 9 9 0 0 1 .033 1.114c0 .616.027 1.981.057 3.024s.023 2.2-.008 2.545ZM7.152 6.864c.51.057.714-.144.714-.7 0-.336-.034-.428-.208-.568a.54.54 0 0 0-.643-.096c-.254.1-.358.271-.41.663-.068.475.066.65.545.7Zm.329-.974a.4.4 0 0 1-.153.64c-.313.078-.438-.016-.438-.328 0-.411.34-.59.591-.313Zm9.807.865c.167-.117.184-.187.163-.625a1.8 1.8 0 0 1 .035-.6c.04-.063 0-.092-.1-.084s-.138.05-.113.1 0 .038-.062-.018a.84.84 0 0 0-.767 0c-.242.136-.282.23-.284.655a.7.7 0 0 0 .162.549.87.87 0 0 0 .964.021Zm-.233-.844c.278.278.163.651-.2.649a.366.366 0 0 1-.409-.316c-.084-.439.295-.644.609-.329m-11.284.972c.427 0 .631-.222.631-.683 0-.609-.406-.886-.959-.655a.7.7 0 0 0-.385.826.64.64 0 0 0 .713.511Zm-.261-.693c.09-.028.142-.087.115-.13-.063-.1.125-.331.241-.292a.47.47 0 0 1 .167.251.356.356 0 0 1-.145.482.4.4 0 0 1-.128.04c-.177.027-.417-.1-.417-.235 0-.036.076-.09.167-.118Zm8.6 2.217c1.1-.013.178-.023-2.059-.023s-3.138.01-2.007.023 2.962.012 4.066 0m-3.978 6.428c1.087.013 2.844.013 3.9 0s.169-.024-1.981-.024-3.014.006-1.922.024"/></svg>

<svg xmlns="http://www.w3.org/2000/svg" fill="#44739e" width="24" height="24" version="1.1" viewBox="0 0 24 24"><path d="M 11.274,6.619 A 0.385,0.385 0 0 0 11.66,6.235 V 6.212 h -0.281 v 0.044 h 0.235 A 0.34,0.34 0 1 1 11.281,5.894 H 11.3 V 5.848 h -0.02 a 0.386,0.386 0 0 0 0,0.771 z M 11.13,6.147 A 0.059,0.059 0 1 0 11.071,6.088 v 0 a 0.058,0.058 0 0 0 0.058,0.058 v 0 M 11.3,6.03 H 11.254 V 6.436 H 11.39 V 6.394 H 11.3 Z M 9.76,6.846 c 0.105,0.024 1.189,0.034 2.419,0.022 l 2.237,-0.023 0.023,-0.712 0.023,-0.716 h -2.39 c -1.314,0 -2.413,0.024 -2.443,0.054 A 2.564,2.564 0 0 0 9.575,6.159 c 0,0.594 0.012,0.64 0.183,0.682 z m 4.147,-1.172 c 0.13,0 0.223,0.034 0.223,0.093 0,0.208 -0.1,0.468 -0.177,0.468 -0.042,0 -0.052,-0.078 -0.021,-0.173 0.035,-0.116 0.024,-0.154 -0.037,-0.117 -0.061,0.037 -0.089,0.017 -0.089,-0.031 0,-0.048 0.063,-0.09 0.141,-0.094 0.094,0 0.076,-0.031 -0.06,-0.073 L 13.678,5.681 Z M 13.684,6.56 a 0.438,0.438 0 0 1 0.312,-0.073 c 0.249,0.008 0.251,0.011 0.057,0.073 -0.295,0.088 -0.428,0.088 -0.372,0 z M 12.667,5.949 A 0.281,0.281 0 0 1 12.836,6 0.177,0.177 0 0 1 12.906,6.144 H 12.739 A 0.073,0.073 0 0 0 12.663,6.077 c -0.065,0 -0.1,0.06 -0.1,0.159 0,0.099 0.039,0.162 0.1,0.162 0.061,0 0.082,-0.03 0.094,-0.094 h -0.1 V 6.186 h 0.25 V 6.5 H 12.771 V 6.452 A 0.165,0.165 0 0 1 12.625,6.52 c -0.14,0 -0.232,-0.113 -0.232,-0.286 a 0.258,0.258 0 0 1 0.23,-0.284 0.237,0.237 0 0 1 0.046,0 M 11.96,5.964 h 0.159 V 6.37 h 0.237 v 0.136 h -0.4 z M 11.285,5.78 A 0.455,0.455 0 1 1 10.83,6.235 v 0 A 0.455,0.455 0 0 1 11.285,5.78 M 14.84,6.729 A 1.057,1.057 0 0 0 15.719,6.802 0.812,0.812 0 0 0 15.8,5.657 0.821,0.821 0 0 0 15.678,5.543 0.571,0.571 0 0 0 14.892,5.63 c -0.184,0.183 -0.209,0.26 -0.171,0.614 a 1.22,1.22 0 0 0 0.119,0.485 z m 0.57,-0.955 c 0.057,0 0.1,0.081 0.1,0.18 a 0.256,0.256 0 0 0 0.125,0.23 c 0.105,0.038 0.105,0.082 0.036,0.217 -0.069,0.135 -0.154,0.162 -0.349,0.144 -0.214,-0.021 -0.261,-0.061 -0.264,-0.23 0,-0.233 0.194,-0.542 0.348,-0.542 z M 8.361,6.8 c 0.355,0.147 0.8,0.042 0.9,-0.214 A 1.094,1.094 0 0 0 9.213,5.679 0.753,0.753 0 0 0 8.26,5.641 c -0.332,0.377 -0.278,1 0.1,1.159 M 8.392,6.182 A 0.271,0.271 0 0 0 8.517,5.939 c 0,-0.233 0.109,-0.248 0.313,-0.042 0.129,0.13 0.155,0.285 0.1,0.6 0,0.033 -0.119,0.061 -0.25,0.061 -0.285,0 -0.511,-0.294 -0.292,-0.375 z m 10.9,7.164 V 4.727 l -0.433,-1.1 a 12.619,12.619 0 0 0 -0.521,-1.2 8.468,8.468 0 0 0 -2.27,-0.1 C 13.997,2.327 13.883,2.319 13.725,2.165 13.567,2.011 13.454,2 12.028,2 c -1.41,0 -1.55,0.014 -1.74,0.163 -0.19,0.149 -0.33,0.162 -2.4,0.162 a 7.863,7.863 0 0 0 -2.281,0.1 11.472,11.472 0 0 0 -0.5,1.291 L 4.7,4.916 v 17.013 l 0.183,0.044 c 0.105,0.024 3.385,0.034 7.3,0.022 l 7.115,-0.022 z M 17.3,4.218 a 4.671,4.671 0 0 1 -1.137,-0.1 c 0,-0.039 0.083,-0.087 0.182,-0.1 A 7.925,7.925 0 0 1 18.23,4.04 c 0.42,0.158 0.186,0.2 -0.927,0.179 z M 18.239,4.53 C 18.273,4.582 17.993,4.608 17.453,4.601 16.867,4.593 16.7,4.572 16.9,4.53 a 3.162,3.162 0 0 1 1.335,0 z M 14.5,2.977 a 11.036,11.036 0 0 1 2.556,0 c 0.077,0.049 0.139,0.045 0.174,-0.012 0.035,-0.057 0.167,-0.066 0.368,-0.027 0.57,0.1 0.066,0.175 -1.5,0.195 -1.453,0.021 -1.692,0 -1.6,-0.156 m -0.4,0.222 c 0.082,-0.083 0.124,-0.065 0.067,0.028 -0.105,0.163 0.2,0.344 0.471,0.289 A 8.274,8.274 0 0 1 16.768,3.44 L 17.661,3.505 17.1,3.64 a 2.148,2.148 0 0 1 -1.179,0.024 c -0.8,-0.146 -0.923,-0.146 -0.867,0 0.035,0.092 -0.019,0.1 -0.256,0.075 -0.465,-0.065 -0.747,-0.2 -0.747,-0.35 a 0.314,0.314 0 0 1 0.054,-0.195 z m 0.313,1 c -0.147,0 -0.286,0.046 -0.313,0.1 -0.027,0.054 -0.042,0.06 -0.047,-0.024 a 0.338,0.338 0 0 1 0.091,-0.223 1.422,1.422 0 0 1 0.946,-0.027 c 0.123,0.076 -0.246,0.173 -0.684,0.173 z m -0.682,0.128 c 0.084,0.1 -0.118,0.117 -1.505,0.112 -1.556,0 -2.031,-0.047 -1.729,-0.152 0.073,-0.027 0.809,-0.054 1.634,-0.063 1.217,-0.012 1.515,0.008 1.6,0.1 z M 12.91,2.591 c 0.157,0 0.22,0.017 0.142,0.038 a 0.68,0.68 0 0 1 -0.284,0 C 12.684,2.608 12.749,2.591 12.905,2.591 Z m -1.138,0 c 0.246,0 0.346,0.016 0.223,0.035 a 1.857,1.857 0 0 1 -0.447,0 c -0.129,-0.014 -0.027,-0.03 0.219,-0.03 z m -1.585,0.923 c 0.038,-0.29 0.121,-0.387 0.121,-0.141 0,0.32 0.2,0.136 0.263,-0.243 0.072,-0.425 0.119,-0.563 0.193,-0.563 0.029,0 0.034,0.143 0.011,0.313 a 0.626,0.626 0 0 0 0.05,0.417 c 0.07,0.076 0.068,0.088 -0.009,0.044 -0.055,-0.031 -0.1,-0.019 -0.1,0.028 a 3.564,3.564 0 0 0 1.26,0.087 3.571,3.571 0 0 0 1.261,-0.087 c 0,-0.047 -0.046,-0.059 -0.105,-0.028 -0.081,0.046 -0.081,0.035 0,-0.052 a 0.776,0.776 0 0 0 0.105,-0.424 c 0,-0.188 0.031,-0.294 0.081,-0.263 a 0.587,0.587 0 0 1 0.081,0.364 c 0,0.393 0.066,0.571 0.209,0.571 0.062,0 0.113,0.035 0.113,0.078 a 9.089,9.089 0 0 1 -1.783,0.1 l -1.782,0.023 z m -0.123,0.07 c 0,0.1 -0.123,0.121 -0.625,0.119 -0.588,0 -0.618,-0.011 -0.428,-0.119 0.275,-0.157 1.048,-0.157 1.048,0 z M 9.9,4.3 A 1.242,1.242 0 0 0 9.3,4.207 c -0.347,0 -0.457,-0.025 -0.37,-0.08 a 1.3,1.3 0 0 1 0.505,-0.08 c 0.313,0 0.4,0.031 0.478,0.181 0.078,0.15 0.07,0.162 -0.019,0.077 z M 9.852,2.972 c 0.024,0.039 -0.25,0.1 -0.6,0.127 a 13.714,13.714 0 0 1 -2.927,-0.128 22.621,22.621 0 0 1 3.531,0 z M 8.476,3.91 A 0.689,0.689 0 0 1 7.83,3.837 C 7.684,3.727 7.7,3.718 8.04,3.719 A 1.282,1.282 0 0 1 8.504,3.788 C 8.591,3.84 8.586,3.864 8.477,3.906 Z M 6.076,3.662 A 1.954,1.954 0 0 0 6.605,3.562 4.86,4.86 0 0 1 7.942,3.415 C 8.083,3.408 8.042,3.435 7.842,3.5 7.67,3.552 7.557,3.623 7.592,3.656 A 2.97,2.97 0 0 1 6.685,3.703 C 6.151,3.696 5.879,3.676 6.085,3.662 Z M 5.713,4.1 C 5.846,4 6.089,3.954 6.652,3.935 7.069,3.92 7.506,3.904 7.619,3.895 7.8,3.883 7.791,3.895 7.536,4.033 A 2.705,2.705 0 0 1 6.389,4.212 C 5.571,4.242 5.544,4.236 5.711,4.101 Z m -0.7,1.564 c 0.053,0 0.092,-0.069 0.092,-0.154 A 0.23,0.23 0 0 1 5.237,5.31 C 5.307,5.283 6.269,5.258 7.371,5.254 8.473,5.25 9.56,5.22 9.783,5.188 L 10.19,5.129 9.639,5.063 C 9.339,5.028 8.188,5.011 7.086,5.028 5.534,5.051 5.074,5.035 5.048,4.955 5.022,4.875 5.315,4.85 6.341,4.85 7.229,4.85 7.628,4.823 7.547,4.771 A 2.576,2.576 0 0 0 6.775,4.69 C 5.952,4.69 5.462,4.613 5.61,4.511 a 4.09,4.09 0 0 1 1,-0.045 2.5,2.5 0 0 1 1.18,0.187 c 0.271,0.151 0.48,0.159 4.431,0.172 7.47,0.025 6.79,0.009 6.791,0.169 0,0.133 -0.12,0.14 -1.688,0.1 q -1.269,-0.033 -2.54,0 l -0.854,0.042 0.61,0.059 c 0.334,0.031 1.378,0.079 2.317,0.1 a 6.426,6.426 0 0 1 1.89,0.167 c 0.3,0.193 0.209,0.284 -0.1,0.1 a 0.693,0.693 0 0 0 -0.945,0.115 1.09,1.09 0 0 0 0.1,1.06 0.88,0.88 0 0 0 0.911,0.021 C 18.932,6.643 18.941,6.647 18.922,6.82 18.903,6.993 18.887,7.002 16.659,7.065 14.376,7.132 5.126,7.083 5.048,7.003 A 3.313,3.313 0 0 1 5.012,5.658 Z m 13.938,1.865 a 0.313,0.313 0 0 1 -0.216,0.2 C 18.36,7.819 11.565,7.882 8.495,7.824 5.756,7.77 5.24,7.742 5.13,7.636 5.02,7.53 5.03,7.501 5.114,7.444 5.173,7.407 8.32,7.376 12.105,7.375 c 6.746,0 6.892,0 6.848,0.154 z M 18.43,5.91 c 0.047,0 0.06,0.061 0.031,0.135 -0.04,0.1 -0.019,0.124 0.084,0.084 0.103,-0.04 0.136,-0.009 0.136,0.092 a 0.379,0.379 0 0 1 -0.634,0.241 0.571,0.571 0 0 1 -0.018,-0.6 c 0.105,-0.11 0.427,-0.135 0.365,-0.032 -0.025,0.042 -0.01,0.074 0.036,0.074 z m -13.4,2.5 c 0.069,0.07 0.362,0.1 0.918,0.092 L 6.766,8.491 6.2,8.4 A 3.419,3.419 0 0 1 5.47,8.213 46.493,46.493 0 0 1 11.07,8.121 c 3.168,0 5.782,-0.021 5.807,-0.046 a 6.832,6.832 0 0 1 1.07,-0.043 c 0.992,0 1.015,0.008 0.779,0.136 a 4.191,4.191 0 0 1 -0.57,0.24 c -0.323,0.1 -0.322,0.1 0.265,0.087 l 0.59,-0.019 v 2.558 c 0,2.045 -0.021,2.536 -0.1,2.455 A 9.7,9.7 0 0 1 18.786,11.137 21.161,21.161 0 0 0 18.695,8.816 C 18.607,8.729 5.433,8.728 5.35,8.816 a 21.836,21.836 0 0 0 -0.094,2.273 22.572,22.572 0 0 1 -0.086,2.27 0.088,0.088 0 0 1 -0.122,0 C 5.014,13.325 4.975,12.175 4.962,10.804 4.941,8.804 4.957,8.331 5.039,8.413 Z m 14.023,12.065 c -0.053,0.56 -0.074,0.618 -0.215,0.581 -0.086,-0.023 -0.157,-0.073 -0.157,-0.112 0,-0.115 -13.394,-0.094 -13.465,0.022 -0.04,0.064 -0.092,0.047 -0.167,-0.057 a 14.7,14.7 0 0 1 -0.11,-3.2 c 0,-2.907 0.007,-3.045 0.142,-2.909 0.135,0.136 0.146,0.417 0.183,2.919 l 0.042,2.781 0.208,0.057 c 0.276,0.077 13.032,0.085 13.147,0.01 a 14.912,14.912 0 0 0 0.121,-2.888 c 0.023,-2.486 0.011,-2.815 -0.1,-2.773 A 92.815,92.815 0 0 1 5.53,14.933 C 5.276,14.843 5.198,14.745 5.33,14.672 5.363,14.655 5.347,14.648 5.295,14.662 5.176,14.689 5.105,14.51 5.108,14.178 v -0.257 l 0.181,0.224 0.182,0.223 1.992,0.092 c 1.949,0.089 9.443,0.045 10.682,-0.063 0.539,-0.047 0.561,-0.058 0.671,-0.323 A 0.86,0.86 0 0 1 18.967,13.799 9.275,9.275 0 0 1 19,14.913 c 0,0.616 0.027,1.981 0.057,3.024 0.03,1.043 0.023,2.2 -0.008,2.545 z M 7.151,6.864 C 7.661,6.921 7.865,6.72 7.865,6.164 7.865,5.828 7.831,5.736 7.657,5.596 A 0.538,0.538 0 0 0 7.014,5.5 C 6.76,5.6 6.656,5.771 6.604,6.163 6.536,6.638 6.67,6.813 7.149,6.863 Z M 7.48,5.89 A 0.4,0.4 0 0 1 7.327,6.53 C 7.014,6.608 6.889,6.514 6.889,6.202 c 0,-0.411 0.34,-0.59 0.591,-0.313 z m 9.807,0.865 C 17.454,6.638 17.471,6.568 17.45,6.13 a 1.783,1.783 0 0 1 0.035,-0.6 c 0.04,-0.063 0,-0.092 -0.1,-0.084 -0.1,0.008 -0.138,0.05 -0.113,0.1 0.025,0.05 0,0.038 -0.062,-0.018 a 0.837,0.837 0 0 0 -0.767,0 c -0.242,0.136 -0.282,0.23 -0.284,0.655 a 0.7,0.7 0 0 0 0.162,0.549 0.871,0.871 0 0 0 0.964,0.021 z M 17.054,5.911 c 0.278,0.278 0.163,0.651 -0.2,0.649 A 0.366,0.366 0 0 1 16.445,6.244 v 0 C 16.361,5.805 16.74,5.6 17.054,5.915 M 5.77,6.887 c 0.427,0 0.631,-0.222 0.631,-0.683 0,-0.609 -0.406,-0.886 -0.959,-0.655 A 0.7,0.7 0 0 0 5.057,6.375 0.64,0.64 0 0 0 5.77,6.886 Z M 5.509,6.194 C 5.599,6.166 5.651,6.107 5.624,6.064 5.561,5.964 5.749,5.733 5.865,5.772 A 0.468,0.468 0 0 1 6.032,6.023 0.356,0.356 0 0 1 5.887,6.505 0.361,0.361 0 0 1 5.759,6.545 C 5.582,6.572 5.342,6.445 5.342,6.31 5.342,6.274 5.418,6.22 5.509,6.192 Z m 8.6,2.217 c 1.1,-0.013 0.178,-0.023 -2.059,-0.023 -2.237,0 -3.138,0.01 -2.007,0.023 1.131,0.013 2.962,0.012 4.066,0 m -3.978,6.428 c 1.087,0.013 2.844,0.013 3.9,0 1.056,-0.013 0.169,-0.024 -1.981,-0.024 -2.15,0 -3.014,0.006 -1.922,0.024"/></svg>
